svg/transport/emergency_flashers_line.svg

<?xml version="1.0" encoding="UTF-8"?>
<svg width="24px" height="24px" viewBox="0 0 24 24" version="1.1" xmlns="http://www.w3.org/2000/svg" xmlns:xlink="http://www.w3.org/1999/xlink">
    <title>emergency_flashers_line</title>
    <g id="页面-1" stroke="none" stroke-width="1" fill="none" fill-rule="evenodd">
        <g id="Transport" transform="translate(-432.000000, -96.000000)">
            <g id="emergency_flashers_line" transform="translate(432.000000, 96.000000)">
                 <path d="M24,0 L24,24 L0,24 L0,0 L24,0 Z M12.5934901,23.257841 L12.5819402,23.2595131 L12.5108777,23.2950439 L12.4918791,23.2987469 L12.4918791,23.2987469 L12.4767152,23.2950439 L12.4056548,23.2595131 C12.3958229,23.2563662 12.3870493,23.2590235 12.3821421,23.2649074 L12.3780323,23.275831 L12.360941,23.7031097 L12.3658947,23.7234994 L12.3769048,23.7357139 L12.4804777,23.8096931 L12.4953491,23.8136134 L12.4953491,23.8136134 L12.5071152,23.8096931 L12.6106902,23.7357139 L12.6232938,23.7196733 L12.6232938,23.7196733 L12.6266527,23.7031097 L12.609561,23.275831 C12.6075724,23.2657013 12.6010112,23.2592993 12.5934901,23.257841 L12.5934901,23.257841 Z M12.8583906,23.1452862 L12.8445485,23.1473072 L12.6598443,23.2396597 L12.6498822,23.2499052 L12.6498822,23.2499052 L12.6471943,23.2611114 L12.6650943,23.6906389 L12.6699349,23.7034178 L12.6699349,23.7034178 L12.678386,23.7104931 L12.8793402,23.8032389 C12.8914285,23.8068999 12.9022333,23.8029875 12.9078286,23.7952264 L12.9118235,23.7811639 L12.8776777,23.1665331 C12.8752882,23.1545897 12.8674102,23.1470016 12.8583906,23.1452862 L12.8583906,23.1452862 Z M12.1430473,23.1473072 C12.1332178,23.1423925 12.1221763,23.1452606 12.1156365,23.1525954 L12.1099173,23.1665331 L12.0757714,23.7811639 C12.0751323,23.7926639 12.0828099,23.8018602 12.0926481,23.8045676 L12.108256,23.8032389 L12.3092106,23.7104931 L12.3186497,23.7024347 L12.3186497,23.7024347 L12.3225043,23.6906389 L12.340401,23.2611114 L12.337245,23.2485176 L12.337245,23.2485176 L12.3277531,23.2396597 L12.1430473,23.1473072 Z" id="MingCute" fill-rule="nonzero"></path>
                <path d="M10.7009,3.14746 C11.2531957,2.19093826 12.597824,2.14935036 13.2189306,3.02269629 L13.299,3.14746 L21.933,18.1019 C22.4880962,19.0634385 21.8422862,20.256116 20.7652633,20.346438 L20.634,20.3519 L3.36601,20.3519 C2.25572154,20.3519 1.54577516,19.1962047 2.00606839,18.2183087 L2.06697,18.1019 L10.7009,3.14746 Z M12,4.89746 L4.23203,18.3519 L19.7679,18.3519 L12,4.89746 Z M12,9 C12.3175111,9 12.6136889,9.15059753 12.8010228,9.40136516 L12.866,9.5 L16.3301,15.5 C16.5087,15.8094 16.5087,16.1906 16.3301,16.5 C16.1713444,16.7750222 15.8928062,16.9561778 15.5819957,16.9930392 L15.4641,17 L8.53588,17 C8.17861,17 7.84849,16.8094 7.66986,16.5 C7.51355,16.229275 7.49401125,15.9035781 7.61124375,15.6191102 L7.66986,15.5 L11.134,9.5 C11.3126,9.1906 11.6427,9 12,9 Z M12,12 L10.2679,15 L13.732,15 L12,12 Z" id="形状" fill="#09244B"></path>
            </g>
        </g>
    </g>
</svg>

<svg xmlns="http://www.w3.org/2000/svg" width="24" height="24"><g fill="none" fill-rule="evenodd"><path d="M24 0v24H0V0h24ZM12.593 23.258l-.011.002-.071.035-.02.004-.014-.004-.071-.035c-.01-.004-.019-.001-.024.005l-.004.01-.017.428.005.02.01.013.104.074.015.004.012-.004.104-.074.012-.016.004-.017-.017-.427c-.002-.01-.009-.017-.017-.018Zm.265-.113-.013.002-.185.093-.01.01-.003.011.018.43.005.012.008.007.201.093c.012.004.023 0 .029-.008l.004-.014-.034-.614c-.003-.012-.01-.02-.02-.022Zm-.715.002a.023.023 0 0 0-.027.006l-.006.014-.034.614c0 .012.007.02.017.024l.015-.002.201-.093.01-.008.004-.011.017-.43-.003-.012-.01-.01-.184-.092Z"/><path fill="#09244B" d="M10.7 3.147a1.5 1.5 0 0 1 2.519-.124l.08.124 8.634 14.955a1.5 1.5 0 0 1-1.168 2.244l-.131.006H3.366a1.5 1.5 0 0 1-1.36-2.134l.061-.116 8.634-14.955Zm1.3 1.75L4.232 18.352h15.536L12 4.897ZM12 9a1 1 0 0 1 .801.401l.065.099 3.464 6a1 1 0 0 1-.748 1.493l-.118.007H8.536a1 1 0 0 1-.925-1.38l.059-.12 3.464-6A1 1 0 0 1 12 9Zm0 3-1.732 3h3.464L12 12Z"/></g></svg>
